public/avatar/emote/87.svg

<svg xmlns:xlink="http://www.w3.org/1999/xlink" height="100.8" width="132.65" xmlns="http://www.w3.org/2000/svg"><use height="19.75" transform="translate(65.5 65.85)" width="24.45" xlink:href="#a"/><defs><g id="a"><path d="M1.55-5.75q1.1-1.45 2.8-1.45 1.65 0 2.8 1.45Q8.3-4.35 8.3-2.3L8.05-.45l-.9 1.6q-1 1.2-2.3 1.4l-.5.05-1-.15q-1.05-.35-1.8-1.3Q.5-.2.4-1.95v-.35Q.35-4.35 1.55-5.75m-3.05.05Q-.35-4.25-.35-2.25v.3Q-.45-.15-1.5 1.2l-1.3 1.1-1.5.35-1.1-.2q-.95-.3-1.7-1.25Q-7.7.5-8-.4q-.3-.85-.25-1.85-.05-2 1.15-3.45Q-6-7.15-4.3-7.15q1.65 0 2.8 1.45" fill="#fff" fill-rule="evenodd" transform="translate(12.25 7.7)"/><path d="M1.55-5.75q1.1-1.45 2.8-1.45 1.65 0 2.8 1.45Q8.3-4.35 8.3-2.3L8.05-.45l-.9 1.6q-1 1.2-2.3 1.4l-.5.05-1-.15q-1.05-.35-1.8-1.3Q.5-.2.4-1.95v-.35Q.35-4.35 1.55-5.75m-3.05.05Q-.35-4.25-.35-2.25v.3Q-.45-.15-1.5 1.2l-1.3 1.1-1.5.35-1.1-.2q-.95-.3-1.7-1.25Q-7.7.5-8-.4q-.3-.85-.25-1.85-.05-2 1.15-3.45Q-6-7.15-4.3-7.15q1.65 0 2.8 1.45" fill="none" stroke="#666" stroke-linecap="round" stroke-linejoin="round" transform="translate(12.25 7.7)"/><path d="M3.15-3.65q.55-.05.95.45.4.55.4 1.35t-.4 1.3Q3.7 0 3.15 0 2.6 0 2.2-.55q-.4-.5-.4-1.3t.4-1.35q.4-.5.95-.45m-.8 1.4q0 .25.15.4.15.2.35.25l.3-.25.15-.4-.15-.5-.3-.2q-.2 0-.35.2l-.15.5" fill-rule="evenodd" transform="translate(12.25 7.7)"/><path d="m2.35-2.25.15-.5q.15-.2.35-.2l.3.2.15.5-.15.4-.3.25q-.2-.05-.35-.25-.15-.15-.15-.4" fill="#fff" fill-rule="evenodd" transform="translate(12.25 7.7)"/><path d="M-4.15-3.2q.4-.5.95-.45.55-.05.95.45.4.55.4 1.35t-.4 1.3q-.4.55-.95.55-.55 0-.95-.55-.4-.5-.4-1.3t.4-1.35m.95 1.35q.15-.15.15-.4l-.15-.5q-.1-.2-.3-.2l-.35.2-.15.5.15.4.35.25.3-.25" fill-rule="evenodd" transform="translate(12.25 7.7)"/><path d="m-3.2-1.85-.3.25-.35-.25-.15-.4.15-.5.35-.2q.2 0 .3.2l.15.5q0 .25-.15.4" fill="#fff" fill-rule="evenodd" transform="translate(12.25 7.7)"/><path d="M-5.5 4.5v2.25l10.9-1.1v-1.9l1.4.15q1.15 2.3-2.95 6.5-2.7-3.4-6-1.25l-1.8 1.3Q-6.45 8.55-7 7.1q-.55-1.5.7-2.4l.8-.2" fill-rule="evenodd" transform="translate(12.25 7.7)"/><path d="m-3.95 10.45 1.8-1.3q3.3-2.15 6 1.25-1.45 1.05-3.3 1.15-2.15 0-4.5-1.1" fill="#c00" fill-rule="evenodd" transform="translate(12.25 7.7)"/><path d="M5.4 3.75v1.9l-10.9 1.1V4.5l10.9-.75" fill="#fff" fill-rule="evenodd" transform="translate(12.25 7.7)"/><path d="m-5.5 4.5-.8.2q-1.25.9-.7 2.4.55 1.45 3.05 3.35 2.35 1.1 4.5 1.1 1.85-.1 3.3-1.15 4.1-4.2 2.95-6.5l-1.4-.15-10.9.75Z" fill="none" stroke="#333" stroke-linecap="round" stroke-linejoin="round" transform="translate(12.25 7.7)"/><path d="M8.65-.15q3.5 1.8 3.55 2.8 0 .95-3.15.4l-4.2-.5q1.3-.2 2.3-1.4l.9-1.6.6.3M.4-1.95Q.5-.2 1.55 1.15q.75.95 1.8 1.3L.9 2.3h-3.7l1.3-1.1Q-.45-.15-.35-1.95H.4M-8-.4q.3.9.9 1.6.75.95 1.7 1.25l-2.75.4-4.1-.2q0-.95 3.7-2.75L-8-.4" fill="#6596cc" fill-opacity=".431" fill-rule="evenodd" transform="translate(12.25 7.7)"/></g></defs></svg>

<?xml version="1.0" encoding="UTF-8" standalone="no"?>
<svg xmlns:xlink="http://www.w3.org/1999/xlink" height="100.8px" width="132.65px" xmlns="http://www.w3.org/2000/svg">
  <g transform="matrix(1.0, 0.0, 0.0, 1.0, 77.75, 73.55)">
    <use height="19.75" transform="matrix(1.0, 0.0, 0.0, 1.0, -12.25, -7.7)" width="24.45" xlink:href="#shape0"/>
  </g>
  <defs>
    <g id="shape0" transform="matrix(1.0, 0.0, 0.0, 1.0, 12.25, 7.7)">
      <path d="M1.55 -5.75 Q2.65 -7.2 4.35 -7.2 6.0 -7.2 7.15 -5.75 8.3 -4.35 8.3 -2.3 L8.05 -0.45 7.15 1.15 Q6.15 2.35 4.85 2.55 L4.35 2.6 3.35 2.45 Q2.3 2.1 1.55 1.15 0.5 -0.2 0.4 -1.95 L0.4 -2.3 Q0.35 -4.35 1.55 -5.75 M-1.5 -5.7 Q-0.35 -4.25 -0.35 -2.25 L-0.35 -1.95 Q-0.45 -0.15 -1.5 1.2 L-2.8 2.3 -4.3 2.65 -5.4 2.45 Q-6.35 2.15 -7.1 1.2 -7.7 0.5 -8.0 -0.4 -8.3 -1.25 -8.25 -2.25 -8.3 -4.25 -7.1 -5.7 -6.0 -7.15 -4.3 -7.15 -2.65 -7.15 -1.5 -5.7" fill="#ffffff" fill-rule="evenodd" stroke="none"/>
      <path d="M1.55 -5.75 Q2.65 -7.2 4.35 -7.2 6.0 -7.2 7.15 -5.75 8.3 -4.35 8.3 -2.3 L8.05 -0.45 7.15 1.15 Q6.15 2.35 4.85 2.55 L4.35 2.6 3.35 2.45 Q2.3 2.1 1.55 1.15 0.5 -0.2 0.4 -1.95 L0.4 -2.3 Q0.35 -4.35 1.55 -5.75 M-1.5 -5.7 Q-0.35 -4.25 -0.35 -2.25 L-0.35 -1.95 Q-0.45 -0.15 -1.5 1.2 L-2.8 2.3 -4.3 2.65 -5.4 2.45 Q-6.35 2.15 -7.1 1.2 -7.7 0.5 -8.0 -0.4 -8.3 -1.25 -8.25 -2.25 -8.3 -4.25 -7.1 -5.7 -6.0 -7.15 -4.3 -7.15 -2.65 -7.15 -1.5 -5.7" fill="none" stroke="#666666" stroke-linecap="round" stroke-linejoin="round" stroke-width="1.0"/>
      <path d="M3.15 -3.65 Q3.7 -3.7 4.1 -3.2 4.5 -2.65 4.5 -1.85 4.5 -1.05 4.1 -0.55 3.7 0.0 3.15 0.0 2.6 0.0 2.2 -0.55 1.8 -1.05 1.8 -1.85 1.8 -2.65 2.2 -3.2 2.6 -3.7 3.15 -3.65 M2.35 -2.25 Q2.35 -2.0 2.5 -1.85 2.65 -1.65 2.85 -1.6 L3.15 -1.85 3.3 -2.25 3.15 -2.75 2.85 -2.95 Q2.65 -2.95 2.5 -2.75 L2.35 -2.25" fill="#000000" fill-rule="evenodd" stroke="none"/>
      <path d="M2.35 -2.25 L2.5 -2.75 Q2.65 -2.95 2.85 -2.95 L3.15 -2.75 3.3 -2.25 3.15 -1.85 2.85 -1.6 Q2.65 -1.65 2.5 -1.85 2.35 -2.0 2.35 -2.25" fill="#ffffff" fill-rule="evenodd" stroke="none"/>
      <path d="M-4.15 -3.2 Q-3.75 -3.7 -3.2 -3.65 -2.65 -3.7 -2.25 -3.2 -1.85 -2.65 -1.85 -1.85 -1.85 -1.05 -2.25 -0.55 -2.65 0.0 -3.2 0.0 -3.75 0.0 -4.15 -0.55 -4.55 -1.05 -4.55 -1.85 -4.55 -2.65 -4.15 -3.2 M-3.2 -1.85 Q-3.05 -2.0 -3.05 -2.25 L-3.2 -2.75 Q-3.3 -2.95 -3.5 -2.95 L-3.85 -2.75 -4.0 -2.25 -3.85 -1.85 -3.5 -1.6 -3.2 -1.85" fill="#000000" fill-rule="evenodd" stroke="none"/>
      <path d="M-3.2 -1.85 L-3.5 -1.6 -3.85 -1.85 -4.0 -2.25 -3.85 -2.75 -3.5 -2.95 Q-3.3 -2.95 -3.2 -2.75 L-3.05 -2.25 Q-3.05 -2.0 -3.2 -1.85" fill="#ffffff" fill-rule="evenodd" stroke="none"/>
      <path d="M-5.5 4.5 L-5.5 6.75 5.4 5.65 5.4 3.75 6.8 3.9 Q7.95 6.2 3.85 10.4 1.15 7.0 -2.15 9.15 L-3.95 10.45 Q-6.45 8.55 -7.0 7.1 -7.55 5.6 -6.3 4.7 L-5.5 4.5" fill="#000000" fill-rule="evenodd" stroke="none"/>
      <path d="M-3.95 10.45 L-2.15 9.15 Q1.15 7.0 3.85 10.4 2.4 11.45 0.55 11.55 -1.6 11.55 -3.95 10.45" fill="#cc0000" fill-rule="evenodd" stroke="none"/>
      <path d="M5.4 3.75 L5.4 5.65 -5.5 6.75 -5.5 4.5 5.4 3.75" fill="#ffffff" fill-rule="evenodd" stroke="none"/>
      <path d="M-5.5 4.5 L-6.3 4.7 Q-7.55 5.6 -7.0 7.1 -6.45 8.55 -3.95 10.45 -1.6 11.55 0.55 11.55 2.4 11.45 3.85 10.4 7.95 6.2 6.8 3.9 L5.4 3.75 -5.5 4.5 Z" fill="none" stroke="#333333" stroke-linecap="round" stroke-linejoin="round" stroke-width="1.0"/>
      <path d="M8.65 -0.15 Q12.15 1.65 12.2 2.65 12.2 3.6 9.05 3.05 L4.85 2.55 Q6.15 2.35 7.15 1.15 L8.05 -0.45 8.65 -0.15 M0.4 -1.95 Q0.5 -0.2 1.55 1.15 2.3 2.1 3.35 2.45 L0.9 2.3 -2.8 2.3 -1.5 1.2 Q-0.45 -0.15 -0.35 -1.95 L0.15 -1.95 0.4 -1.95 M-8.0 -0.4 Q-7.7 0.5 -7.1 1.2 -6.35 2.15 -5.4 2.45 L-8.15 2.85 -12.25 2.65 Q-12.25 1.7 -8.55 -0.1 L-8.0 -0.4" fill="#6596cc" fill-opacity="0.43137255" fill-rule="evenodd" stroke="none"/>
    </g>
  </defs>
</svg>
